Hatter/scalable/apps/keeperpasswordmanager.svg

<?xml version="1.0" encoding="UTF-8" standalone="no"?>
<svg
   width="64"
   height="64"
   version="1.1"
   viewBox="0 0 16.933 16.933"
   id="svg45"
   sodipodi:docname="keeperpasswordmanager.svg"
   inkscape:version="1.2.1 (9c6d41e410, 2022-07-14, custom)"
   xmlns:inkscape="http://www.inkscape.org/namespaces/inkscape"
   xmlns:sodipodi="http://sodipodi.sourceforge.net/DTD/sodipodi-0.dtd"
   xmlns="http://www.w3.org/2000/svg"
   xmlns:svg="http://www.w3.org/2000/svg"
   xmlns:rdf="http://www.w3.org/1999/02/22-rdf-syntax-ns#"
   xmlns:cc="http://creativecommons.org/ns#"
   xmlns:dc="http://purl.org/dc/elements/1.1/">
  <sodipodi:namedview
     id="namedview47"
     pagecolor="#ffffff"
     bordercolor="#666666"
     borderopacity="1.0"
     inkscape:showpageshadow="2"
     inkscape:pageopacity="0.0"
     inkscape:pagecheckerboard="0"
     inkscape:deskcolor="#d1d1d1"
     showgrid="false"
     inkscape:zoom="4.4636116"
     inkscape:cx="-9.4094209"
     inkscape:cy="6.608998"
     inkscape:window-width="1920"
     inkscape:window-height="1005"
     inkscape:window-x="0"
     inkscape:window-y="0"
     inkscape:window-maximized="1"
     inkscape:current-layer="svg45" />
  <defs
     id="defs13">
    <filter
       id="filter1208"
       x="-0.20026781"
       y="-0.32153334"
       width="1.4005356"
       height="1.6430667"
       color-interpolation-filters="sRGB">
      <feGaussianBlur
         stdDeviation="0.4323125"
         id="feGaussianBlur2" />
    </filter>
    <filter
       id="filter1057-4-7"
       x="-0.026999999"
       y="-0.026999999"
       width="1.054"
       height="1.054"
       color-interpolation-filters="sRGB">
      <feGaussianBlur
         stdDeviation="0.61875"
         id="feGaussianBlur5" />
    </filter>
    <linearGradient
       id="linearGradient1053-5-5"
       x1="-127"
       x2="-127"
       y1="60"
       y2="5"
       gradientTransform="matrix(.2646 0 0 .2646 34.795 -.13542)"
       gradientUnits="userSpaceOnUse">
      <stop
         stop-color="#32d7ff"
         offset="0"
         id="stop8"
         style="stop-color:#363031;stop-opacity:1;" />
      <stop
         stop-color="#329bff"
         offset="1"
         id="stop10"
         style="stop-color:#231f20;stop-opacity:1;" />
    </linearGradient>
  </defs>
  <metadata
     id="metadata15">
    <rdf:RDF>
      <cc:Work
         rdf:about="">
        <dc:format>image/svg+xml</dc:format>
        <dc:type
           rdf:resource="http://purl.org/dc/dcmitype/StillImage" />
        <dc:title />
      </cc:Work>
    </rdf:RDF>
  </metadata>
  <rect
     transform="matrix(.2646 0 0 .2646 -.00038019 -.0003802)"
     x="4.5"
     y="4.5"
     width="55"
     height="55"
     ry="15"
     fill="#141414"
     filter="url(#filter1057-4-7)"
     opacity=".3"
     stroke-linecap="round"
     stroke-width="2.7444"
     id="rect17" />
  <rect
     x="1.1905"
     y="1.1902"
     width="14.552"
     height="14.552"
     ry="3.9689"
     stroke-linecap="round"
     stroke-width=".72613"
     id="rect19"
     style="fill:#2c2728;fill-opacity:1" />
  <g
     id="g961"
     transform="matrix(1.1464397,0,0,1.1464397,-1.5573144,-1.2391682)">
    <path
       style="fill:#ffc70a;fill-opacity:1;stroke:none;stroke-width:0.264578px;stroke-linecap:butt;stroke-linejoin:miter;stroke-opacity:1"
       d="M 5.4642621,3.9046045 6.4032043,4.7223162 V 12.293282 L 5.4642621,13.110993 Z"
       id="path940" />
    <path
       style="fill:#ffc70a;fill-opacity:1;stroke:none;stroke-width:0.264578px;stroke-linecap:butt;stroke-linejoin:miter;stroke-opacity:1"
       d="M 4.5609757,5.9298674 3.6220335,6.7927435 v 3.5751115 l 0.9389422,0.801073 z"
       id="path942" />
    <path
       style="fill:#ffc70a;fill-opacity:1;stroke:none;stroke-width:0.264578px;stroke-linecap:butt;stroke-linejoin:miter;stroke-opacity:1"
       d="m 7.3231303,3.1582047 -0.00238,4.7493842 h 3.2090437 l 2.591005,-2.06805 -0.587136,-0.7345144 -2.331905,1.8636221 H 8.2620722 V 3.1582047 Z"
       id="path944" />
    <path
       style="fill:#ffc70a;fill-opacity:1;stroke:none;stroke-width:0.264578px;stroke-linecap:butt;stroke-linejoin:miter;stroke-opacity:1"
       d="M 9.1582274,3.2889436 V 6.1984764 L 9.9260207,6.2032282 11.927513,4.5559196 11.147834,3.9806688 10.09717,4.8459218 V 3.5290276 Z"
       id="path946" />
    <path
       style="fill:#ffc70a;fill-opacity:1;stroke:none;stroke-width:0.264578px;stroke-linecap:butt;stroke-linejoin:miter;stroke-opacity:1"
       d="M 7.320753,9.0248115 V 13.774196 H 8.2596953 V 9.9637535 h 1.9420657 l 2.334282,1.8636235 0.584759,-0.734515 -2.591005,-2.0680505 z"
       id="path948" />
    <path
       style="fill:#ffc70a;fill-opacity:1;stroke:none;stroke-width:0.264578px;stroke-linecap:butt;stroke-linejoin:miter;stroke-opacity:1"
       d="m 13.263426,6.8806951 -1.920672,1.585505 1.92305,1.5878829 0.599021,-0.7273841 -1.045911,-0.8604988 1.043534,-0.8604988 z"
       id="path950" />
    <path
       style="fill:#ffc70a;fill-opacity:1;stroke:none;stroke-width:0.264578px;stroke-linecap:butt;stroke-linejoin:miter;stroke-opacity:1"
       d="m 9.1606044,10.862232 v 2.909533 l 0.9389426,-0.240084 v -1.316896 l 1.050665,0.865253 0.779679,-0.575197 -2.0014933,-1.647309 z"
       id="path952" />
  </g>
</svg>

<?xml version="1.0" encoding="UTF-8"?>
<svg id="svg45" width="64" height="64" version="1.1" viewBox="0 0 16.933 16.933" xmlns="http://www.w3.org/2000/svg" xmlns:cc="http://creativecommons.org/ns#" xmlns:dc="http://purl.org/dc/elements/1.1/" xmlns:rdf="http://www.w3.org/1999/02/22-rdf-syntax-ns#">
 <defs id="defs13">
  <filter id="filter1057-4-7" x="-.027" y="-.027" width="1.054" height="1.054" color-interpolation-filters="sRGB">
   <feGaussianBlur id="feGaussianBlur5" stdDeviation="0.61875"/>
  </filter>
 </defs>
 <metadata id="metadata15">
  <rdf:RDF>
   <cc:Work rdf:about="">
    <dc:format>image/svg+xml</dc:format>
    <dc:type rdf:resource="http://purl.org/dc/dcmitype/StillImage"/>
    <dc:title/>
   </cc:Work>
  </rdf:RDF>
 </metadata>
 <rect id="rect17" transform="matrix(.2646 0 0 .2646 -.00038019 -.0003802)" x="4.5" y="4.5" width="55" height="55" ry="15" fill="#141414" filter="url(#filter1057-4-7)" opacity=".3" stroke-linecap="round" stroke-width="2.7444"/>
 <rect id="rect19" x="1.1905" y="1.1902" width="14.552" height="14.552" ry="3.9689" fill="#2c2728" stroke-linecap="round" stroke-width=".72613"/>
 <g id="g961" transform="matrix(1.1464 0 0 1.1464 -1.5573 -1.2392)" fill="#ffc70a">
  <path id="path940" d="m5.4643 3.9046 0.93894 0.81771v7.571l-0.93894 0.81771z"/>
  <path id="path942" d="m4.561 5.9299-0.93894 0.86288v3.5751l0.93894 0.80107z"/>
  <path id="path944" d="m7.3231 3.1582-0.00238 4.7494h3.209l2.591-2.068-0.58714-0.73451-2.3319 1.8636h-1.9397v-3.8104z"/>
  <path id="path946" d="m9.1582 3.2889v2.9095l0.76779 0.0047518 2.0015-1.6473-0.77968-0.57525-1.0507 0.86525v-1.3169z"/>
  <path id="path948" d="m7.3208 9.0248v4.7494h0.93894v-3.8104h1.9421l2.3343 1.8636 0.58476-0.73452-2.591-2.0681z"/>
  <path id="path950" d="m13.263 6.8807-1.9207 1.5855 1.923 1.5879 0.59902-0.72738-1.0459-0.8605 1.0435-0.8605z"/>
  <path id="path952" d="m9.1606 10.862v2.9095l0.93894-0.24008v-1.3169l1.0507 0.86525 0.77968-0.5752-2.0015-1.6473z"/>
 </g>
</svg>
